src/assets/icons/weeks,simple,15.svg

<svg width="48" height="48" viewBox="0 0 48 48" fill="none" xmlns="http://www.w3.org/2000/svg">
<rect opacity="0.2" x="5" y="5" width="38" height="38" rx="4" fill="black"/>
<path d="M5 13C5 9.22876 5 7.34315 6.17157 6.17157C7.34315 5 9.22876 5 13 5H35C38.7712 5 40.6569 5 41.8284 6.17157C43 7.34315 43 9.22876 43 13V15H5V13Z" fill="black"/>
<path d="M19.4031 20.5455H15.9343L11.6133 23.2812V26.554L15.6104 24.0483H15.7127V38H19.4031V20.5455ZM29.9265 38.2386C33.8129 38.2386 36.4549 35.7074 36.4464 32.179C36.4549 28.8381 34.1197 26.4347 30.9748 26.4347C29.4407 26.4347 28.1197 27.0739 27.506 27.9347H27.4038L27.8555 23.5625H35.4833V20.5455H24.8129L23.9862 29.75L27.2674 30.3381C27.8043 29.6136 28.8441 29.1619 29.8754 29.1619C31.631 29.1705 32.8924 30.4403 32.8924 32.2727C32.8924 34.0881 31.6566 35.3409 29.9265 35.3409C28.4606 35.3409 27.2759 34.4205 27.1907 33.0653H23.6112C23.6793 36.0824 26.3129 38.2386 29.9265 38.2386Z" fill="black"/>
</svg>

<svg xmlns="http://www.w3.org/2000/svg" width="48" height="48" fill="none" viewBox="0 0 48 48">
  <rect width="38" height="38" x="5" y="5" fill="#000" opacity=".2" rx="4"/>
  <path fill="#000" d="M5 13c0-3.771 0-5.657 1.172-6.828C7.343 5 9.229 5 13 5h22c3.771 0 5.657 0 6.828 1.172C43 7.343 43 9.229 43 13v2H5v-2zM19.403 20.546h-3.469l-4.32 2.735v3.273l3.996-2.506h.103V38h3.69V20.546zm10.524 17.693c3.886 0 6.528-2.532 6.52-6.06.008-3.34-2.327-5.744-5.472-5.744-1.534 0-2.855.639-3.469 1.5h-.102l.451-4.372h7.628v-3.017h-10.67l-.827 9.204 3.281.588c.537-.724 1.577-1.176 2.608-1.176 1.756.009 3.017 1.278 3.017 3.11 0 1.816-1.235 3.069-2.966 3.069-1.465 0-2.65-.92-2.735-2.276h-3.58c.068 3.017 2.702 5.174 6.316 5.174z"/>
</svg>
